X:1
T:Title
%%score { ( 1 3 ) | ( 2 4 ) }
L:1/8
M:4/4
K:Eb
V:1 treble nm="Grand Piano"
V:3 treble 
V:2 bass 
V:4 bass 
V:1
 z4 z2[Q:1/4=100] E2 | G2 E2 B2 G2 | c4 B2 B2 | e3 e [Ed]2 [Fc]2 |[M:3/4] [GB]6 |[M:1/4] [GB]2 | %6
[M:4/4] [GB]2 [GB]2 [Gc]2 [GB]2 | B3 A A2 G2 | F2 F2 G2 F2 |[M:3/4] F6 |[M:1/4] F2 | %11
[M:4/4] G2 G2 [FB]2 [FB]2 | [Ee]4 [EG]2 [EG]2 | [EA]2 [EA]2 [E_d]2 [Ed]2 |[M:3/4] [Ec]6 | %15
[M:1/4] c2 |[M:4/4] d2 e2 [Ad]2 [Gc]2 | [FB]2 [=Ec]2 [FA]2 [B,FA]2 | [B,EG]2 .[CEB]2 F2- [A,DF]2 | %19
[M:3/4] [G,E]6 |] %20
V:2
 z4 z2 [E,G,]2 | [E,B,E]2 [E,G,]2 [E,G,E]2 [E,B,E]2 | [E,A,E]4 [E,G,E]2 [E,G,_D]2 | %3
 [A,,A,C]3 [A,,A,C] [C,A,]2 [D,A,]2 |[M:3/4] [E,G,]6 |[M:1/4] [E,B,]2 | %6
[M:4/4] [=E,C]2 [E,C]2 [E,C]2 [E,C]2 | [F,CF]4 [F,CF]2 [G,CE]2 | [A,CE]2 [A,CE]2 [=A,CE]2 [A,CE]2 | %9
[M:3/4] [B,D]6 |[M:1/4] [B,D]2 |[M:4/4] [E,B,E]2 [E,B,E]2 [D,B,]2 [D,B,]2 | [C,C]4 [C,C]2 [C,C]2 | %13
 [C,A,]2 [C,A,]2 [B,,A,]2 [B,,G,]2 |[M:3/4] [A,,A,]6 |[M:1/4][K:treble] [A,CE]2 | %16
[M:4/4] [A,B,F]2[K:bass] [G,B,E]2 [F,B,]2 [E,B,]2 | [D,B,]2 [C,G,]2 F,2 D,2 | E,2 z A B,,2 z E | %19
[M:3/4] E,6 |] %20
V:3
 x8 | x8 | x8 | x8 |[M:3/4] x6 |[M:1/4] x2 |[M:4/4] x8 | x8 | x8 |[M:3/4] x6 |[M:1/4] x2 | %11
[M:4/4] x8 | x8 | x8 |[M:3/4] x6 |[M:1/4] x2 |[M:4/4] x8 | x8 | z4 [B,E]2 z2 |[M:3/4] x6 |] %20
V:4
 x8 | x8 | x8 | x8 |[M:3/4] x6 |[M:1/4] x2 |[M:4/4] x8 | x8 | x8 |[M:3/4] x6 |[M:1/4] x2 | %11
[M:4/4] x8 | x8 | x8 |[M:3/4] x6 |[M:1/4][K:treble] x2 |[M:4/4] x2[K:bass] x6 | x8 | %18
 z2 A,,2 z2 B,,2 |[M:3/4] x6 |] %20

